static/images/021-clock.svg

<svg width="189" height="188" viewBox="0 0 189 188" fill="none" xmlns="http://www.w3.org/2000/svg">
<g clip-path="url(#clip0)">
<path d="M153.693 188H36.1929C16.7233 188 0.942871 172.22 0.942871 152.75V35.25C0.942871 15.7805 16.7233 0 36.1929 0H153.693C173.162 0 188.943 15.7805 188.943 35.25V152.75C188.943 172.22 173.162 188 153.693 188Z" fill="#F5E6FE"/>
<path d="M94.9429 47C69.0289 47 47.9429 68.086 47.9429 94C47.9429 119.914 69.0289 141 94.9429 141C120.857 141 141.943 119.914 141.943 94C141.943 68.086 120.857 47 94.9429 47ZM117.297 118.31C116.534 119.075 115.528 119.456 114.53 119.456C113.526 119.456 112.526 119.075 111.763 118.31L92.1818 98.729C91.4474 97.9946 91.0358 97.002 91.0358 95.9622V70.5C91.0358 68.3385 92.7928 66.5814 94.9543 66.5814C97.1173 66.5814 98.8729 68.3327 98.8729 70.5V94.3342L117.308 112.771C118.824 114.304 118.824 116.783 117.297 118.31V118.31Z" fill="#BE63F9"/>
</g>
<defs>
<clipPath id="clip0">
<rect width="188" height="188" fill="white" transform="translate(0.942871)"/>
</clipPath>
</defs>
</svg>

<svg width="189" height="188" fill="none" xmlns="http://www.w3.org/2000/svg"><g clip-path="url(#clip0)"><path d="M153.693 188h-117.5c-19.47 0-35.25-15.78-35.25-35.25V35.25C.943 15.78 16.723 0 36.193 0h117.5c19.469 0 35.25 15.78 35.25 35.25v117.5c0 19.47-15.781 35.25-35.25 35.25z" fill="#F5E6FE"/><path d="M94.943 47c-25.914 0-47 21.086-47 47s21.086 47 47 47 47-21.086 47-47-21.086-47-47-47zm22.354 71.31a3.9 3.9 0 0 1-2.767 1.146 3.89 3.89 0 0 1-2.767-1.146L92.182 98.729a3.908 3.908 0 0 1-1.146-2.767V70.5a3.917 3.917 0 1 1 7.837 0v23.834l18.435 18.437a3.931 3.931 0 0 1-.011 5.539z" fill="#BE63F9"/></g><defs><clipPath id="clip0"><path fill="#fff" transform="translate(.943)" d="M0 0h188v188H0z"/></clipPath></defs></svg>
